X:1
T:THE ST. LOUIS RAG.
T:THE ST. LOUIS RAG.
T:By TOM TURPIN.
T:Copyright, 1903, by Sol Bloom, New York and Chicago.
T:Copyright, 1903, by Sol Bloom, New York and Chicago.
T:Copyright, 1903, by Sol Bloom, New York and Chicago.
C:By TOM TURPIN.
Z:Copyright, 1903, by Sol Bloom, New York and Chicago.
%%score { ( 1 3 ) | 2 }
L:1/8
Q:1/4=100
M:2/4
K:C
V:1 treble nm="Piano" snm="Pno."
V:3 treble 
V:2 bass 
V:1
"^Allegretto\n"!f! [Gg]/!>![cc'][Aa]/ [Gg]/[Ee]/[Dd] | [Cc]/!>![Ee][Dd]/ [Cc]/[B,B]/[A,A] | %2
 [G,G]/[A,A][^A,^A]/!<(! [B,B]/[Cc]/[Dd]/[Ee]/!<)! | [Ff] z !>![GBdg]!mf! g/a/ |: %4
 [fb]/g/a/[fb]/- [fb]/[db][eb]/ | [fb]/d/e/[fb]/- [fb]/f/e/d/ | e/[ca]e/ [ca]G/A/ | %7
 [ce]/G/A/[ce]/- [ce]/c/B/A/ | B/[Gg]B/ [Gg]G/A/ | [Bf]/G/A/[Bf]/- [Bf]/B/A/G/ | %10
 A/[ce]G/- G/A/[ce]/A/ | [Ge]/A/c/[ce]/- [ce]g/a/ | [fb]/g/a/[fb]/- [fb]/[db][eb]/ | %13
 [fb]/d/e/[fb]/- [fb]/f/e/d/ | e/[ca]e/ [ca]G/A/ | [ce]/G/A/[ce]/- [ce]/c/B/_B/ | %16
 A/^G/A/^c/- c/e/[Aca] | [Adg]/f/e/f/- f/c/[^Fd] | [Ge]/c/d/[^Fe]/- [Fe]/B/[=Fd] |1 %19
 [Ec]2- [Ec] g/a/ :|2 [Ec][Gg]/[Gg]/ [Gg][Gg] |: [Gf]/[^Gf]/[Af]/[Bf]/- [Bf]/[^Af]/[Bf] | %22
 [Bfg]/[cfg]/[^cfg]/[dfg]/- [dfg]/[cfg]/[dfg] |!8va(! e'/g'/b/c'/ e'/!8va)!^f/g/c'/ | %24
 e/=f/^f/g/ a/g/e/c/ | B[fg] ^A[eg] | z/ B/d/f/ [Aa]/g/f/d/ | z !arpeggio![Gceg]z!arpeggio![Gceg] | %28
 z [Gg]/e/ [Aa]/e/!>![Gg] | [Gf]/[^Gf]/[Af]/[Bf]/- [Bf]/[^Af]/[Bf] | %30
 [Bfg]/[cfg]/[^cfg]/[dfg]/- [dfg]/[cfg]/[dfg] |!8va(! e'/g'/b/c'/ e'/!8va)!^f/g/c'/ | %32
 e/=f/^f/g/ a/g/e/c/ | z !>![c_ec']!>![ceb]!>![cea] | z/ g/^f/g/ a/g/e/c/ | %35
 z/ G/^F/G/ ^G/A/^A/B/ |1 [Ec]a/g/ e/c/B/A/ :|2 [Ec]2- [Ec]/[FA]/[G_B]/[^G=B]/ |: %38
[K:F]!mf! [Ac]/=B/c/[Af]/- [Af]/[FA]/[G_B]/[^G=B]/ | [Ac]/=B/c/[Af]/- [Af]/B/c/^c/ | %40
 [Bd]/^c/d/[Bg]/- [Bg]/^F/G/A/ | [GB]/A/B/G/- G/A/B/=B/ | c2 e2 | %43
 z [EBc]/[EBd]/- [EBd]/c/[EBd]/c/ | [Ff]/[Gg]/[Aa]/[Gg]/ [Ff]/[Dd][Ff]/ | [Cc][F=B^c][E_Bd][EB=c] | %46
!mf! [Ac]/=B/c/[Af]/- [Af]/[FA]/[G_B]/[^G=B]/ | [Ac]/=B/c/[Af]/- [Af]/B/c/^c/ | %48
 [Bd]/^c/d/[Bg]/- [Bg]/^F/G/A/ | [GB]/A/B/G/- G/A/B/=B/ | c2 e2 | %51
 z [EBc]/[EBd]/- [EBd]/c/[EBd]/c/ | [FAf]c/[FAd]/- [FAd]/c/[EBd] |1 %53
 [FAf]2- [FAf]/[FA]/[GB]/[^G=B]/ :|2 [FAf] =B,/C/ ^C/D/^D/E/ |:!f! !^!F[fad'] [fad'][_ead'] | %56
 [=ead'] =B,/C/ ^C/D/^D/E/ | !^!F[fad'] [fad'][_ead'] | [=ead'] =B,/C/ ^C/D/^D/E/ | %59
 !^!F [fad']/[fac']/- [fac']/a/g/f/ | [^ca]/e/g/[Af]/- [Af][Aa] | [=Ba]/f/g/[Ba]/- [Ba]/f/[Bg] | %62
 [cec'] =B,/C/!<(! ^C/D/^D/E/!<)! | !^!F[fad'] [fad'][_ead'] | [=ead'] =B,/C/ ^C/D/^D/E/ | %65
 !^!F[fad'] [fad'][_ead'] | [=ead'] =B,/!<(!C/ ^C/D/^D/E/!<)! | %67
 !^!F [fad']/[fac']/- [fac']/a/g/f/ | [Aa]/e/g/[Af]/- [Af][=Bfg] | [ca]/f/g/[=Ba]/- [Ba]/f/[_Bg] |1 %70
 [Af] =B,/C/!<(! ^C/D/^D/!<)!E/ :|2 [Af] z !>![fac'f']"_D.C." z |] %72
V:2
 G,/!>!CA,/ G,/E,/D, | C,/!>!E,D,/ C,/B,,/A,, | G,,/A,,^A,,/ B,,/C,/D,/E,/ | F, z !>![G,,G,] z |: %4
 D,[G,B,F] G,,[G,B,F] | D,[G,B,F] G,,[G,B,F] | C,[G,CE] G,,[G,CE] | C,[G,CE] [E,,E,][_E,,_E,] | %8
 [D,,D,][G,B,F] G,,[G,B,F] | D,[G,B,F] G,,[G,B,F] | C,[G,CE] G,,[G,CE] | %11
 C,[G,CE] [E,,E,][_E,,_E,] | [D,,D,][G,B,F] G,,[G,B,F] | D,[G,B,F] G,,[G,B,F] | %14
 C,[G,CE] G,,[G,CE] | C,[G,CE] [E,,E,][D,,D,] | [^C,,^C,][G,A,E] A,,[A,EG] | %17
 D,[A,DF] [A,,A,][_A,,_A,] | [G,,G,][^G,,^G,] [A,,A,][B,,B,] |1 %19
 [C,C][B,,B,]/[A,,A,]/- [A,,A,]/[G,,G,]/[E,,E,] :|2 [C,C] z z2 |: D,[F,G,B,] G,,[F,G,B,] | %22
 D,[G,B,F] G,,[G,B,F] | !arpeggio!!^![C,G,E] z z2 | z4 | D,[G,B,F] ^C,[G,^A,E] | %26
 D,[G,B,F] G,,[G,B,F] | !>![C,C]2 !>![B,,B,]2 | !>![A,,A,]2 !>![G,,G,]2 | D,[F,G,B,] G,,[F,G,B,] | %30
 D,[G,B,F] G,,[G,B,F] | !>![C,G,E] z z2 | z4 | z !>![^F,,^F,]!>![F,,F,]!>![F,,F,] | %34
 [G,,G,][G,CE] E,[G,CE] | D,[F,G,B,] G,,[F,G,B,] |1 [C,G,C] z z2 :|2 [C,C][G,,G,][C,,C,] z |: %38
[K:F] [F,,F,][A,CF] C,[A,CF] | F,[A,CF] C,[A,CF] | B,,[G,B,D] G,,[G,B,D] | %41
 B,,[G,B,D] [D,,D,][_D,,_D,] | [C,,C,][G,B,C] C,[G,B,C] | G,,[G,B,C] C,,[G,B,C] | %44
 F,/G,/A,/G,/ F,/D,F,/ | A,_A,G,C, | [F,,F,][A,CF] C,[A,CF] | F,[A,CF] C,[A,CF] | %48
 B,,[G,B,D] G,,[G,B,D] | B,,[G,B,D] [D,,D,][_D,,_D,] | [C,,C,][G,B,C] C,[G,B,C] | %51
 G,,[G,B,C] C,,[G,B,C] | [F,,F,] [F,A,C]2 [C,,C,] |1 [F,,F,][C,,C,][F,,,F,,] z :|2 %54
 [F,,F,]=B,,/C,/ ^C,/D,/^D,/E,/ |: !^!F,[A,CF] [A,,A,][^F,,^F,] | [G,,G,]=B,,/C,/ ^C,/D,/^D,/E,/ | %57
 !^!F,[A,CF] [A,,A,][^F,,^F,] | [G,,G,]=B,,/C,/ ^C,/D,/^D,/E,/ | !^!F,[A,CF] F,[A,CF] | %60
 [A,,A,][^C,^C] [D,D][A,DF] | D,[G,=B,F] G,,[G,B,F] | [C,C]=B,,/C,/ ^C,/D,/^D,/E,/ | %63
 !^!F,[A,CF] [A,,A,][^F,,^F,] | [G,,G,]=B,,/C,/ ^C,/D,/^D,/E,/ | !^!F,[A,CF] [A,,A,][^F,,^F,] | %66
 [G,,G,]=B,,/C,/ ^C,/D,/^D,/E,/ | !^!F,[A,CF] F,[A,CF] | [^C,^C][A,,A,] [D,D][_D,_D] | %69
 [C,C][C,C] [D,D][E,E] |1 [F,F]=B,,/C,/ ^C,/D,/^D,/E,/ :|2 [F,F] z !>![F,,,F,,] z |] %72
V:3
 x4 | x4 | x4 | x4 |: x4 | x4 | x4 | x4 | x4 | x4 | x4 | x4 | x4 | x4 | x4 | x4 | x4 | x4 | x4 |1 %19
 x4 :|2 x4 |: x4 | x4 |!8va(! x5/2!8va)! x3/2 | x4 | !>!B2 !>!^A2 | x4 | x4 | x4 | x4 | x4 | %31
!8va(! x5/2!8va)! x3/2 | x4 | x4 | x4 | x4 |1 x4 :|2 x4 |:[K:F] x4 | x4 | x4 | x4 | c[EB] e[EB] | %43
 x4 | x4 | x4 | x4 | x4 | x4 | x4 | c[EB] e[EB] | x4 | x4 |1 x4 :|2 x4 |: x4 | x4 | x4 | x4 | x4 | %60
 x4 | x4 | x4 | x4 | x4 | x4 | x4 | x4 | x4 | x4 |1 x4 :|2 x4 |] %72

